client/src/assets/images/menu/home.svg

<?xml version="1.0" encoding="UTF-8"?>
<svg width="24px" height="24px" viewBox="0 0 24 24" version="1.1" xmlns="http://www.w3.org/2000/svg" xmlns:xlink="http://www.w3.org/1999/xlink">
    <g id="Page-1" stroke="none" stroke-width="1" fill="none" fill-rule="evenodd" stroke-linecap="round" stroke-linejoin="round">
        <g id="Artboard-4" transform="translate(-620.000000, -159.000000)" stroke="#000000" stroke-width="2">
            <g id="34" transform="translate(620.000000, 159.000000)">
                <path d="M1,11 L12,2 C12,2 22.9999989,11.0000005 23,11" id="Path-50"></path>
                <path d="M3,10 C3,10 3,10.4453982 3,10.9968336 L3,20.0170446 C3,20.5675806 3.43788135,21.0138782 4.00292933,21.0138781 L8.99707067,21.0138779 C9.55097324,21.0138779 10,20.5751284 10,20.0089602 L10,15.0049177 C10,14.449917 10.4433532,14 11.0093689,14 L12.9906311,14 C13.5480902,14 14,14.4387495 14,15.0049177 L14,20.0089602 C14,20.5639609 14.4378817,21.0138779 15.0029302,21.0138779 L19.9970758,21.0138781 C20.5509789,21.0138782 21.000006,20.56848 21.000006,20.0170446 L21.0000057,10" id="Path-51"></path>
            </g>
        </g>
    </g>
</svg>

<svg xmlns="http://www.w3.org/2000/svg" height="24px" width="24px" viewBox="0 0 24 24">
  <defs/>
  <g fill="none" fill-rule="evenodd" stroke="#000" stroke-linecap="round" stroke-linejoin="round" stroke-width="2">
    <path d="M1 11l11-9 11 9"/>
    <path d="M3 10v10c0 .6.4 1 1 1h5c.6 0 1-.4 1-1v-5c0-.6.4-1 1-1h2c.5 0 1 .4 1 1v5c0 .6.4 1 1 1h5c.6 0 1-.4 1-1V10"/>
  </g>
</svg>
